dist/images/icons/icon-modal-close.svg

<svg width="20" height="20" viewBox="0 0 20 20" fill="none" xmlns="http://www.w3.org/2000/svg">
<path d="M16.95 0.74173C16.3734 0.74173 15.8237 0.961786 15.3841 1.37391L9.99993 6.75852L4.61532 1.37391C4.17569 0.961786 3.62603 0.74173 3.04935 0.74173C2.47218 0.74173 1.92301 0.961786 1.48338 1.37391L1.34585 1.51096C0.494093 2.36271 0.494093 3.76364 1.34585 4.61539L6.75797 10L1.37335 15.3846C0.5216 16.2364 0.5216 17.6373 1.37335 18.4891L1.51089 18.6261C1.92301 19.0382 2.49969 19.2583 3.07686 19.2583C3.65354 19.2583 4.20319 19.0382 4.64282 18.6261L10.027 13.2415L15.4116 18.6261C15.8237 19.0382 16.4009 19.2583 16.9775 19.2583C17.5547 19.2583 18.1039 19.0382 18.5435 18.6261L18.681 18.4891C19.5328 17.6373 19.5328 16.2364 18.681 15.3846L13.2414 10L18.626 4.61539C19.4778 3.76364 19.4778 2.36271 18.626 1.51096L18.4885 1.37391C18.0764 0.961786 17.4997 0.74173 16.95 0.74173Z" fill="white"/>
</svg>

<svg width="20" height="20" fill="none" xmlns="http://www.w3.org/2000/svg"><path d="M16.95.742c-.577 0-1.126.22-1.566.632L10 6.759 4.615 1.374A2.274 2.274 0 003.05.742c-.577 0-1.126.22-1.566.632l-.137.137a2.205 2.205 0 000 3.104L6.758 10l-5.385 5.385a2.205 2.205 0 000 3.104l.138.137c.412.412.989.632 1.566.632.577 0 1.126-.22 1.566-.632l5.384-5.385 5.385 5.385c.412.412.989.632 1.565.632.578 0 1.127-.22 1.567-.632l.137-.137a2.205 2.205 0 000-3.104L13.241 10l5.385-5.385a2.205 2.205 0 000-3.104l-.138-.137A2.208 2.208 0 0016.95.742z" fill="#fff"/></svg>
